svgs/sodexo.svg

<svg xmlns="http://www.w3.org/2000/svg" viewBox="0 0 192 192"><path d="M66.322 147.02c-2.416-1.766-2.508-2.489-.835-6.527 1.034-2.498 4.332-6.756 7.327-9.462 7.209-6.513 8.603-8.806 4.574-7.528-1.699.54-4.399.566-5.998.058-5.513-1.75-2.799-21.81 2.951-21.81 1.176 0 1.89.981 1.587 2.181-1.523 6.022-1.859 15.994-.539 15.994 2.219 0 4.382-3.166 5.47-8.005 1.933-8.594 2.398-9.443 5.169-9.443 1.546 0 2.809.163 2.808.363-.001.2-.906 5.107-2.012 10.905-2.192 11.496-2.017 11.778 5.994 9.63l3.254-.872-2.89-4.058c-5.598-7.862-2.584-17.302 4.922-15.418 2.215.556 4.144.085 5.286-1.291 2.097-2.527 6.274-2.796 10.262-.662 1.985 1.062 2.812 3.053 2.812 6.768 0 4.235-1.118 6.327-5.724 10.708-4.908 4.669-5.34 5.546-3.031 6.15 1.482.388 4.221-.057 6.087-.987 2.743-1.368 3.597-3.321 4.455-10.189.584-4.673 1.809-9.397 2.724-10.499 3.439-4.144 4.442-1.97 3.433 7.449-.676 6.312-.501 9.451.525 9.451 2.326 0 3.741-2.889 5.345-10.905.969-4.847 2.181-7.27 3.635-7.27 1.756 0 2.089 1.769 1.708 9.087-.528 10.134.379 10.905 7.155 6.081 3.377-2.405 4.223-2.572 4.223-.833 0 5.769-14.953 11.154-16.898 6.086-.668-1.743-1.357-1.608-3.904.765-1.701 1.585-4.096 2.763-5.322 2.62-1.226-.144-3.375.166-4.774.689-5.976 2.232-7.309 2.275-11.84.382-2.624-1.097-5.695-1.501-6.825-.899-1.13.602-4.463 1.526-7.406 2.054-4.875.875-5.568 1.613-7.789 8.3-1.737 5.228-3.752 8.14-7.008 10.126-5.458 3.328-5.468 3.329-8.911.811Zm9.75-9.572c4.312-8.631.002-7.467-5.209 1.407-2.642 4.498-2.642 4.599 0 4.106 1.489-.279 3.833-2.759 5.209-5.513Zm31.78-21.772c4.686-4.687 5.428-8.957 2.042-11.767-1.807-1.5-2.731-1.359-5.089.774-1.584 1.434-2.881 3.613-2.881 4.841 0 1.782-.398 1.688-1.97-.462-2.321-3.173-6.754-2.099-6.754 1.637 0 3.07 5.58 9.227 8.363 9.227 1.121 0 3.952-1.913 6.289-4.25Zm-54.368 9.123c-.519-.518-.557-2.481-.085-4.362.95-3.784-.219-4.163-6.031-1.954-2.963 1.127-3.678 1.043-3.089-.363.421-1.006 1.845-5.307 3.164-9.559 2.186-7.042 5.333-10.642 7.452-8.523.455.456-.227 3.924-1.517 7.709-2.826 8.295-2.807 7.817-.321 7.817 1.113 0 2.434-1.636 2.936-3.635.502-1.999 1.82-3.635 2.929-3.635 1.334 0 1.747 1.035 1.218 3.057-.468 1.791.04 3.588 1.227 4.339 1.648 1.044 1.58 1.288-.363 1.306-3.102.029-4.672 4.189-2.547 6.749 1.309 1.577 1.059 1.997-1.187 1.997-1.564 0-3.268-.424-3.786-.943ZM24.992 92.546c-5.204-1.549-9.434-7.917-8.289-12.479.519-2.071 1.982-3.762 3.253-3.762 1.543 0 2.005.792 1.393 2.386-3.517 9.164 13.013 14.317 20.255 6.315 4.248-4.694 1.775-8.854-9.061-15.244-9.099-5.366-9.897-6.235-10.312-11.237-.397-4.791.111-5.764 4.362-8.356 7.271-4.433 18.249-3.43 21.874 1.999 1.877 2.812 1.189 10.632-1.104 12.534-3.165 2.628-4.37.637-2.327-3.846 1.46-3.203 1.342-4.275-.716-6.549-3.43-3.791-12.362-3.637-15.901.273-3.603 3.982-1.834 6.67 8.077 12.274 10.121 5.723 14.126 11.01 12.275 16.207-2.655 7.454-14.599 12.218-23.779 9.485Zm30.404-4.608c-3.822-3.822-3.773-11.596.105-16.526 3.684-4.683 10.187-5.08 16.832-1.028 4.348 2.651 4.832 2.669 9.643.358 4.327-2.079 5.167-3.31 5.767-8.452 1.118-9.593 5.473-17.164 10.183-17.706 3.877-.446 3.997-.247 3.959 6.543-.025 4.452-1.614 10.696-4.362 17.139-5.357 12.562-5.654 17.156-1.065 16.501 1.984-.283 3.994-2.17 5.14-4.827 4.122-9.558 5.646-11.651 8.816-12.107 3.934-.566 7.505 2.045 7.505 5.489 0 2.771-5.792 8.799-8.455 8.799-2.556 0-2.088 2.457.67 3.516 1.317.505 4.935-.406 8.042-2.026 6.742-3.514 8.467-3.669 8.467-.763 0 2.816 2.048 2.789 4.41-.058 1.41-1.699 1.486-3.45.314-7.268-1.906-6.212.377-8.382 3.902-3.708l2.411 3.196 2.704-2.987c1.487-1.643 3.584-2.988 4.659-2.988 3.223 0 2.212 3.86-1.679 6.41-4.043 2.649-4.527 4.927-1.818 8.554 1.548 2.072 2.357 2.161 5.449.6 1.998-1.008 3.698-2.796 3.778-3.973.08-1.177.245-3.285.366-4.684.723-8.299 12.834-11.019 20.467-4.596 5.444 4.581 6.025 7.845.642 3.611-4.991-3.926-6.094-3.801-5.254.595 1.06 5.546-.769 10.652-4.751 13.261-3.346 2.193-3.888 2.186-7.364-.091-3.508-2.299-4.084-2.301-8.855-.037-4.885 2.318-5.238 2.296-8.244-.508-3.101-2.892-3.183-2.894-6.563-.138-3.656 2.981-6.028 2.573-6.028-1.035 0-1.219-.491-1.964-1.091-1.655-10.558 5.434-12.589 5.838-17.112 3.403-4.027-2.169-4.882-2.189-8.704-.207-3.792 1.968-4.498 1.964-6.709-.037-2.224-2.013-2.91-2.008-6.873.041-2.421 1.252-5.43 1.881-6.687 1.399-2.792-1.071-4.337-6.603-3.158-11.302.666-2.653.023-4.033-2.716-5.828-3.576-2.343-3.586-2.336-2.716 2.013 1.147 5.734-1.693 12.32-6.197 14.372-4.631 2.11-4.421 2.144-7.83-1.265Zm8.64-3.534c2.425-2.923 1.402-13.188-1.314-13.188-3.253 0-6.474 6.857-5.341 11.37 1.072 4.273 3.962 5.063 6.655 1.818Zm21.843-.733c1.809-3.379 2.005-11.728.276-11.728-3.796 0-8.313 9.622-5.888 12.544 2.268 2.733 3.834 2.505 5.612-.816Zm76.881-.891c2.324-5.102 2.112-8.674-.651-10.967-1.99-1.651-2.65-1.515-4.425.912-3.138 4.29-3.957 9.173-1.945 11.596 2.643 3.185 5.115 2.642 7.021-1.541Zm-50.096-5.79c2.086-2.086 1.796-6.501-.426-6.501-1.919 0-4.498 3.501-4.498 6.107 0 3.203 1.958 3.36 4.924.394ZM96.57 64.182c2.721-8.633 3.183-15.503 1.043-15.503-2.353 0-4.029 4.645-5.116 14.177-1.279 11.218.747 11.877 4.073 1.326Z"/></svg>

<svg
    xmlns="http://www.w3.org/2000/svg"
    viewBox="0 0 192 192"
    id="vector">
    <g id="group">
        <path
            id="path_6"
            d="M 66.322 147.02 C 63.906 145.254 63.814 144.531 65.487 140.493 C 66.521 137.995 69.819 133.737 72.814 131.031 C 80.023 124.518 81.417 122.225 77.388 123.503 C 75.689 124.043 72.989 124.069 71.39 123.561 C 65.877 121.811 68.591 101.751 74.341 101.751 C 75.517 101.751 76.231 102.732 75.928 103.932 C 74.405 109.954 74.069 119.926 75.389 119.926 C 77.608 119.926 79.771 116.76 80.859 111.921 C 82.792 103.327 83.257 102.478 86.028 102.478 C 87.574 102.478 88.837 102.641 88.836 102.841 C 88.835 103.041 87.93 107.948 86.824 113.746 C 84.632 125.242 84.807 125.524 92.818 123.376 L 96.072 122.504 L 93.182 118.446 C 87.584 110.584 90.598 101.144 98.104 103.028 C 100.319 103.584 102.248 103.113 103.39 101.737 C 105.487 99.21 109.664 98.941 113.652 101.075 C 115.637 102.137 116.464 104.128 116.464 107.843 C 116.464 112.078 115.346 114.17 110.74 118.551 C 105.832 123.22 105.4 124.097 107.709 124.701 C 109.191 125.089 111.93 124.644 113.796 123.714 C 116.539 122.346 117.393 120.393 118.251 113.525 C 118.835 108.852 120.06 104.128 120.975 103.026 C 124.414 98.882 125.417 101.056 124.408 110.475 C 123.732 116.787 123.907 119.926 124.933 119.926 C 127.259 119.926 128.674 117.037 130.278 109.021 C 131.247 104.174 132.459 101.751 133.913 101.751 C 135.669 101.751 136.002 103.52 135.621 110.838 C 135.093 120.972 136 121.743 142.776 116.919 C 146.153 114.514 146.999 114.347 146.999 116.086 C 146.999 121.855 132.046 127.24 130.101 122.172 C 129.433 120.429 128.744 120.564 126.197 122.937 C 124.496 124.522 122.101 125.7 120.875 125.557 C 119.649 125.413 117.5 125.723 116.101 126.246 C 110.125 128.478 108.792 128.521 104.261 126.628 C 101.637 125.531 98.566 125.127 97.436 125.729 C 96.306 126.331 92.973 127.255 90.03 127.783 C 85.155 128.658 84.462 129.396 82.241 136.083 C 80.504 141.311 78.489 144.223 75.233 146.209 C 69.775 149.537 69.765 149.538 66.322 147.02 Z M 76.072 137.448 C 80.384 128.817 76.074 129.981 70.863 138.855 C 68.221 143.353 68.221 143.454 70.863 142.961 C 72.352 142.682 74.696 140.202 76.072 137.448 Z M 107.852 115.676 C 112.538 110.989 113.28 106.719 109.894 103.909 C 108.087 102.409 107.163 102.55 104.805 104.683 C 103.221 106.117 101.924 108.296 101.924 109.524 C 101.924 111.306 101.526 111.212 99.954 109.062 C 97.633 105.889 93.2 106.963 93.2 110.699 C 93.2 113.769 98.78 119.926 101.563 119.926 C 102.684 119.926 105.515 118.013 107.852 115.676 Z M 53.484 124.799 C 52.965 124.281 52.927 122.318 53.399 120.437 C 54.349 116.653 53.18 116.274 47.368 118.483 C 44.405 119.61 43.69 119.526 44.279 118.12 C 44.7 117.114 46.124 112.813 47.443 108.561 C 49.629 101.519 52.776 97.919 54.895 100.038 C 55.35 100.494 54.668 103.962 53.378 107.747 C 50.552 116.042 50.571 115.564 53.057 115.564 C 54.17 115.564 55.491 113.928 55.993 111.929 C 56.495 109.93 57.813 108.294 58.922 108.294 C 60.256 108.294 60.669 109.329 60.14 111.351 C 59.672 113.142 60.18 114.939 61.367 115.69 C 63.015 116.734 62.947 116.978 61.004 116.996 C 57.902 117.025 56.332 121.185 58.457 123.745 C 59.766 125.322 59.516 125.742 57.27 125.742 C 55.706 125.742 54.002 125.318 53.484 124.799 Z M 24.992 92.546 C 19.788 90.997 15.558 84.629 16.703 80.067 C 17.222 77.996 18.685 76.305 19.956 76.305 C 21.499 76.305 21.961 77.097 21.349 78.691 C 17.832 87.855 34.362 93.008 41.604 85.006 C 45.852 80.312 43.379 76.152 32.543 69.762 C 23.444 64.396 22.646 63.527 22.231 58.525 C 21.834 53.734 22.342 52.761 26.593 50.169 C 33.864 45.736 44.842 46.739 48.467 52.168 C 50.344 54.98 49.656 62.8 47.363 64.702 C 44.198 67.33 42.993 65.339 45.036 60.856 C 46.496 57.653 46.378 56.581 44.32 54.307 C 40.89 50.516 31.958 50.67 28.419 54.58 C 24.816 58.562 26.585 61.25 36.496 66.854 C 46.617 72.577 50.622 77.864 48.771 83.061 C 46.116 90.515 34.172 95.279 24.992 92.546 Z M 55.396 87.938 C 51.574 84.116 51.623 76.342 55.501 71.412 C 59.185 66.729 65.688 66.332 72.333 70.384 C 76.681 73.035 77.165 73.053 81.976 70.742 C 86.303 68.663 87.143 67.432 87.743 62.29 C 88.861 52.697 93.216 45.126 97.926 44.584 C 101.803 44.138 101.923 44.337 101.885 51.127 C 101.86 55.579 100.271 61.823 97.523 68.266 C 92.166 80.828 91.869 85.422 96.458 84.767 C 98.442 84.484 100.452 82.597 101.598 79.94 C 105.72 70.382 107.244 68.289 110.414 67.833 C 114.348 67.267 117.919 69.878 117.919 73.322 C 117.919 76.093 112.127 82.121 109.464 82.121 C 106.908 82.121 107.376 84.578 110.134 85.637 C 111.451 86.142 115.069 85.231 118.176 83.611 C 124.918 80.097 126.643 79.942 126.643 82.848 C 126.643 85.664 128.691 85.637 131.053 82.79 C 132.463 81.091 132.539 79.34 131.367 75.522 C 129.461 69.31 131.744 67.14 135.269 71.814 L 137.68 75.01 L 140.384 72.023 C 141.871 70.38 143.968 69.035 145.043 69.035 C 148.266 69.035 147.255 72.895 143.364 75.445 C 139.321 78.094 138.837 80.372 141.546 83.999 C 143.094 86.071 143.903 86.16 146.995 84.599 C 148.993 83.591 150.693 81.803 150.773 80.626 C 150.853 79.449 151.018 77.341 151.139 75.942 C 151.862 67.643 163.973 64.923 171.606 71.346 C 177.05 75.927 177.631 79.191 172.248 74.957 C 167.257 71.031 166.154 71.156 166.994 75.552 C 168.054 81.098 166.225 86.204 162.243 88.813 C 158.897 91.006 158.355 90.999 154.879 88.722 C 151.371 86.423 150.795 86.421 146.024 88.685 C 141.139 91.003 140.786 90.981 137.78 88.177 C 134.679 85.285 134.597 85.283 131.217 88.039 C 127.561 91.02 125.189 90.612 125.189 87.004 C 125.189 85.785 124.698 85.04 124.098 85.349 C 113.54 90.783 111.509 91.187 106.986 88.752 C 102.959 86.583 102.104 86.563 98.282 88.545 C 94.49 90.513 93.784 90.509 91.573 88.508 C 89.349 86.495 88.663 86.5 84.7 88.549 C 82.279 89.801 79.27 90.43 78.013 89.948 C 75.221 88.877 73.676 83.345 74.855 78.646 C 75.521 75.993 74.878 74.613 72.139 72.818 C 68.563 70.475 68.553 70.482 69.423 74.831 C 70.57 80.565 67.73 87.151 63.226 89.203 C 58.595 91.313 58.805 91.347 55.396 87.938 Z M 64.036 84.404 C 66.461 81.481 65.438 71.216 62.722 71.216 C 59.469 71.216 56.248 78.073 57.381 82.586 C 58.453 86.859 61.343 87.649 64.036 84.404 Z M 85.879 83.671 C 87.688 80.292 87.884 71.943 86.155 71.943 C 82.359 71.943 77.842 81.565 80.267 84.487 C 82.535 87.22 84.101 86.992 85.879 83.671 Z M 162.76 82.78 C 165.084 77.678 164.872 74.106 162.109 71.813 C 160.119 70.162 159.459 70.298 157.684 72.725 C 154.546 77.015 153.727 81.898 155.739 84.321 C 158.382 87.506 160.854 86.963 162.76 82.78 Z M 112.664 76.99 C 114.75 74.904 114.46 70.489 112.238 70.489 C 110.319 70.489 107.74 73.99 107.74 76.596 C 107.74 79.799 109.698 79.956 112.664 76.99 Z M 96.57 64.182 C 99.291 55.549 99.753 48.679 97.613 48.679 C 95.26 48.679 93.584 53.324 92.497 62.856 C 91.218 74.074 93.244 74.733 96.57 64.182 Z"
            fill="#000000"
            stroke-width="12"/>
    </g>
</svg>
